X:102
M:6/8
L:1/8
Q:3/8=110
K:D
|:a|ggg gag|ggg gbg|eee ege|fff faf|ddd dfd|BBB Bgb|aaa aAA|dAF D2:|

